static/img/pivotal-logo.svg

<?xml version="1.0" encoding="UTF-8"?>
<svg width="320px" height="210px" viewBox="0 0 320 210" version="1.1" xmlns="http://www.w3.org/2000/svg" xmlns:xlink="http://www.w3.org/1999/xlink">
    <!-- Generator: Sketch 46.2 (44496) - http://www.bohemiancoding.com/sketch -->
    <title>Logo</title>
    <desc>Created with Sketch.</desc>
    <defs></defs>
    <g id="Success-stories" stroke="none" stroke-width="1" fill="none" fill-rule="evenodd">
        <g id="Desktop---Success-stories" transform="translate(-159.000000, -2027.000000)">
            <g id="Pivotal" transform="translate(159.000000, 2021.000000)">
                <g id="Logo" transform="translate(0.000000, 6.000000)">
                    <polygon id="graphic" fill="#7FB7DD" opacity="0.2" points="181.504627 0 0 209.689441 144.238489 209.689441 320 0"></polygon>
                    <g id="Pivotal-OnLight" transform="translate(55.000000, 74.000000)" fill="#007B67">
                        <path d="M41,49 L49,49 L49,12.676078 L41,12.676078 L41,49 Z M41.0094735,7.31060073 L48.9897978,7.31060073 L48.9897978,0 L41.0094735,0 L41.0094735,7.31060073 Z" id="Fill-1"></path>
                        <path d="M91,14 L80.4757686,45.2366745 C78.6665398,50.3446707 75.4411834,51 72.8306067,51 C68.9532946,51 66.6187836,49.2222305 65.2432741,45.2456046 L56.4711307,19.3058315 L53,19.3058315 L53,14 L62.0544051,14 L71.0950414,43.0378182 C71.4902078,44.2770362 71.7339167,45.0189184 72.8306067,45.0189184 C73.9692918,45.0189184 74.1944127,44.2653584 74.5620414,43.0378182 L83.786492,14 L91,14" id="Fill-2"></path>
                        <path d="M111.004934,45.0484563 C116.994444,45.0484563 120.706431,40.6342573 120.706431,35.3407905 L120.706431,29.6598964 C120.706431,24.3609342 117.026869,19.9474222 111.004934,19.9474222 C104.662976,19.9474222 101.308372,24.3609342 101.308372,29.6598964 L101.308372,35.3407905 C101.308372,40.6342573 104.80889,45.0484563 111.004934,45.0484563 M111.004934,14 C121.018701,14 128,20.4372018 128,29.6598964 L128,35.3407905 C128,44.5518074 121.018701,51 111.004934,51 C100.996102,51 94,44.5518074 94,35.3407905 L94,29.6598964 C94,20.4372018 100.996102,14 111.004934,14" id="Fill-3"></path>
                        <path d="M188.561542,14.6819757 C184.610299,13.7068872 178.435261,13 173.874967,13 C163.461862,13 157,19.2996123 157,29.4545318 L157,33.4526026 C157,43.5978198 163.461862,49.9930697 173.874967,49.9930697 C174.115553,49.9930697 175.965825,50 176.808959,49.920995 L176.808959,43.7967184 C176.4889,43.7967184 174.110496,43.8778025 173.874967,43.8778025 C168.210723,43.8778025 164.401086,39.6877634 164.401086,33.4526026 L164.401086,29.4545318 C164.401086,23.219371 168.210723,19.031411 173.874967,19.031411 C176.438326,19.031411 180.307207,19.2303096 181.64235,19.50059 L182.066446,19.5886044 L182.075839,50 L190,50 L190,15.9460563 C190,15.2966903 190,15.0472007 188.561542,14.6819757" id="Fill-4"></path>
                        <polygon id="Fill-5" points="196 49 204 49 204 0 196 0"></polygon>
                        <path d="M13.5192816,0 L0,0 L0,49 L8.01218002,49 L8.01218002,6.81199651 L12.7099917,6.81199651 C13.7066887,6.81889753 14.5566887,6.86030364 15.4087944,6.87686609 C22.3533856,7.00798547 25.7519818,9.71663568 25.7519818,15.0255901 C25.7519818,15.2395217 25.7660198,15.3796124 25.7660198,15.600445 C25.7660198,20.5119007 23.0222956,23.7705622 15.4509083,23.7705622 C14.7272502,23.7705622 13.983237,23.7539998 13.2132535,23.7609008 C13.2153592,25.6393583 13.2062345,29.1229931 13.2013212,30.347234 C13.983237,30.3844995 14.7132122,30.4162442 15.4628406,30.4162442 C26.3275392,30.4162442 34,26.2169737 34,15.674286 C34,15.4672554 33.9887696,15.2512535 33.9887696,15.0393921 C33.9887696,4.11231762 25.6298514,0 13.5192816,0" id="Fill-6"></path>
                        <path d="M139.660617,4 L139.660617,11.981432 L151.995859,11.981432 L151.995859,17.9625826 L139.660617,17.9625826 L139.660617,39.5359404 C139.660617,42.9203826 141.782624,43.011816 144.856946,43.011816 L152,43.011816 L152,49 L142.33469,49 C135.187496,49 132,46.0846814 132,39.5359404 L132,5.07188071 L139.660617,4" id="Fill-7"></path>
                        <path d="M210.927084,46.0504284 C211.468556,46.0322091 211.798147,45.7751871 211.798147,45.3444312 C211.798147,44.8869971 211.505177,44.6579547 210.881308,44.6579547 C210.872153,44.6579547 210.330681,44.6579547 210.330681,44.6579547 L210.330681,46.0777573 L210.927084,46.0504284 Z M210.339837,47.5886563 L209.990627,47.5886563 L209.990627,44.3462748 C209.990627,44.3462748 210.898965,44.3462748 210.90812,44.3462748 C211.734714,44.3462748 212.138202,44.7223728 212.138202,45.3268626 C212.138202,45.8031667 211.853733,46.1050862 211.468556,46.2514912 L212.312153,47.5886563 L211.89951,47.5886563 L211.119346,46.3341286 L210.339837,46.3796768 L210.339837,47.5886563 Z M211.000327,43.4294545 C209.591717,43.4294545 208.447956,44.5974406 208.447956,45.9951198 C208.447956,47.392799 209.591717,48.5516755 211.000327,48.5516755 C212.418093,48.5516755 213.561853,47.392799 213.561853,45.9951198 C213.561853,44.5974406 212.418093,43.4294545 211.000327,43.4294545 Z M208,46.0042295 C208,44.3462748 209.339292,43 211.000327,43 C212.660708,43 214,44.3462748 214,46.0042295 C214,47.6530745 212.660708,49 211.000327,49 C209.339292,49 208,47.6530745 208,46.0042295 L208,46.0042295 Z" id="Fill-8"></path>
                    </g>
                </g>
            </g>
        </g>
    </g>
</svg>

<?xml version="1.0" encoding="utf-8"?>
<!-- Generator: Adobe Illustrator 21.0.2, SVG Export Plug-In . SVG Version: 6.00 Build 0)  -->
<svg version="1.1" id="Layer_1" xmlns="http://www.w3.org/2000/svg" xmlns:xlink="http://www.w3.org/1999/xlink" x="0px" y="0px"
	 viewBox="0 0 320 210" style="enable-background:new 0 0 320 210;" xml:space="preserve">
<style type="text/css">
	.st0{opacity:0.2;fill:#7FB7DD;enable-background:new    ;}
	.st1{fill:#007B67;}
</style>
<title>Logo</title>
<desc>Created with Sketch.</desc>
<g id="Success-stories">
	<g id="Desktop---Success-stories" transform="translate(-159.000000, -2027.000000)">
		<g id="Pivotal" transform="translate(159.000000, 2021.000000)">
			<g id="Logo" transform="translate(0.000000, 6.000000)">
				<polygon id="graphic" class="st0" points="0,0 175.8,209.7 320,209.7 138.5,0 				"/>
				<g id="Pivotal-OnLight" transform="translate(55.000000, 74.000000)">
					<path id="Fill-1" class="st1" d="M41,49h8V12.7h-8V49z M41,7.3h8V0h-8V7.3z"/>
					<path id="Fill-2" class="st1" d="M91,14L80.5,45.2c-1.8,5.1-5,5.8-7.6,5.8c-3.9,0-6.2-1.8-7.6-5.8l-8.8-25.9H53V14h9.1l9,29
						c0.4,1.2,0.6,2,1.7,2c1.1,0,1.4-0.8,1.7-2l9.2-29H91"/>
					<path id="Fill-3" class="st1" d="M111,45c6,0,9.7-4.4,9.7-9.7v-5.7c0-5.3-3.7-9.7-9.7-9.7c-6.3,0-9.7,4.4-9.7,9.7v5.7
						C101.3,40.6,104.8,45,111,45 M111,14c10,0,17,6.4,17,15.7v5.7c0,9.2-7,15.7-17,15.7c-10,0-17-6.4-17-15.7v-5.7
						C94,20.4,101,14,111,14"/>
					<path id="Fill-4" class="st1" d="M188.6,14.7c-4-1-10.1-1.7-14.7-1.7c-10.4,0-16.9,6.3-16.9,16.5v4c0,10.1,6.5,16.5,16.9,16.5
						c0.2,0,2.1,0,2.9-0.1v-6.1c-0.3,0-2.7,0.1-2.9,0.1c-5.7,0-9.5-4.2-9.5-10.4v-4c0-6.2,3.8-10.4,9.5-10.4c2.6,0,6.4,0.2,7.8,0.5
						l0.4,0.1l0,30.4h7.9V15.9C190,15.3,190,15,188.6,14.7"/>
					<polygon id="Fill-5" class="st1" points="196,49 204,49 204,0 196,0 					"/>
					<path id="Fill-6" class="st1" d="M13.5,0H0v49h8V6.8h4.7c1,0,1.8,0,2.7,0.1C22.4,7,25.8,9.7,25.8,15c0,0.2,0,0.4,0,0.6
						c0,4.9-2.7,8.2-10.3,8.2c-0.7,0-1.5,0-2.2,0c0,1.9,0,5.4,0,6.6c0.8,0,1.5,0.1,2.3,0.1c10.9,0,18.5-4.2,18.5-14.7
						c0-0.2,0-0.4,0-0.6C34,4.1,25.6,0,13.5,0"/>
					<path id="Fill-7" class="st1" d="M139.7,4v8H152v6h-12.3v21.6c0,3.4,2.1,3.5,5.2,3.5h7.1v6h-9.7c-7.1,0-10.3-2.9-10.3-9.5V5.1
						L139.7,4"/>
					<path id="Fill-8" class="st1" d="M210.9,46.1c0.5,0,0.9-0.3,0.9-0.7c0-0.5-0.3-0.7-0.9-0.7c0,0-0.6,0-0.6,0v1.4L210.9,46.1z
						 M210.3,47.6H210v-3.2c0,0,0.9,0,0.9,0c0.8,0,1.2,0.4,1.2,1c0,0.5-0.3,0.8-0.7,0.9l0.8,1.3h-0.4l-0.8-1.3l-0.8,0V47.6z
						 M211,43.4c-1.4,0-2.6,1.2-2.6,2.6c0,1.4,1.1,2.6,2.6,2.6c1.4,0,2.6-1.2,2.6-2.6C213.6,44.6,212.4,43.4,211,43.4z M208,46
						c0-1.7,1.3-3,3-3c1.7,0,3,1.3,3,3c0,1.6-1.3,3-3,3C209.3,49,208,47.7,208,46L208,46z"/>
				</g>
			</g>
		</g>
	</g>
</g>
</svg>
